svgs/light/tarp-droplet.svg

<svg xmlns="http://www.w3.org/2000/svg" viewBox="0 0 576 512"><!--! Font Awesome Pro 6.4.0 by @fontawesome - https://fontawesome.com License - https://fontawesome.com/license (Commercial License) Copyright 2023 Fonticons, Inc. --><path d="M328 113.5l0 0s0 0 0 0c0-.1-.1-1.1-.6-3.1c-.6-2.3-1.7-5.3-3.2-8.9c-3.2-7.4-7.9-16-13.7-25.3c-7-11.3-15-22.6-22.4-32.6c-7.4 10-15.4 21.3-22.4 32.6c-5.8 9.3-10.5 17.9-13.7 25.3c-1.6 3.6-2.6 6.6-3.2 8.9c-.5 2-.6 3-.6 3.1c0 0 0 0 0 0l0 0c0 17.7 15.9 35.5 40 35.5s40-17.8 40-35.5zm32 0c0 37.3-32.2 67.5-72 67.5s-72-30.2-72-67.5c0-27.7 39.7-81.3 60.2-107c6.1-7.7 17.5-7.7 23.7 0c20.4 25.7 60.2 79.3 60.2 107zM64 128H193.3c1.9 11.5 5.9 22.3 11.5 32L64 160c-17.7 0-32 14.3-32 32l0 256c0 17.7 14.3 32 32 32l320 0 0-112c0-26.5 21.5-48 48-48H544V192c0-17.7-14.3-32-32-32H371.2c5.6-9.7 9.6-20.5 11.5-32H512c35.3 0 64 28.7 64 64V348.1c0 12.7-5.1 24.9-14.1 33.9L446.1 497.9c-9 9-21.2 14.1-33.9 14.1L64 512c-35.3 0-64-28.7-64-64V192c0-35.3 28.7-64 64-64zM423.4 475.3L539.3 359.4c2.1-2.1 3.5-4.6 4.2-7.4H432c-8.8 0-16 7.2-16 16l0 111.5c2.8-.7 5.4-2.1 7.4-4.2zM96 200a24 24 0 1 1 0 48 24 24 0 1 1 0-48z"/></svg>

<svg xmlns="http://www.w3.org/2000/svg" viewBox="0 0 576 512"><!--! Font Awesome Pro 6.3.0 by @fontawesome - https://fontawesome.com License - https://fontawesome.com/license (Commercial License) Copyright 2023 Fonticons, Inc. --><path d="M360 113.5C360 150.8 327.8 181 288 181C248.2 181 216 150.8 216 113.5C216 85.81 255.7 32.2 276.2 6.468C282.3-1.229 293.7-1.229 299.8 6.468C320.3 32.2 360 85.81 360 113.5H360zM328 113.5C327.1 113.4 327.9 112.4 327.4 110.4C326.7 108.1 325.7 105.1 324.1 101.4C320.9 94.09 316.2 85.45 310.4 76.15C303.4 64.87 295.4 53.54 287.1 43.58C280.6 53.54 272.6 64.87 265.6 76.15C259.8 85.45 255.1 94.09 251.9 101.4C250.3 105.1 249.3 108.1 248.6 110.4C248.1 112.4 248 113.4 247.1 113.5C247.1 113.5 248 113.5 247.1 113.5C247.1 131.2 263.9 149 287.1 149C312.1 149 328 131.2 328 113.5C328 113.5 328 113.5 328 113.5H328zM64 128H193.3C195.3 139.5 199.2 150.3 204.8 160H64C46.33 160 32 174.3 32 192V448C32 465.7 46.33 480 64 480H384V368C384 341.5 405.5 320 432 320H544V192C544 174.3 529.7 160 512 160H371.2C376.8 150.3 380.7 139.5 382.7 128H512C547.3 128 576 156.7 576 192V348.1C576 360.9 570.9 373.1 561.9 382.1L446.1 497.9C437.1 506.9 424.8 512 412.1 512H64C28.65 512 0 483.3 0 448V192C0 156.7 28.65 128 64 128V128zM539.3 359.4C541.4 357.4 542.8 354.8 543.5 352H432C423.2 352 416 359.2 416 368V479.5C418.8 478.8 421.4 477.4 423.4 475.3L539.3 359.4zM72 224C72 210.7 82.75 200 96 200C109.3 200 120 210.7 120 224C120 237.3 109.3 248 96 248C82.75 248 72 237.3 72 224z"/></svg>
